assets/Man bouncing ball/Medium-Dark/Flat/man_bouncing_ball_flat_medium-dark.svg

<svg width="32" height="32" viewBox="0 0 32 32" fill="none" xmlns="http://www.w3.org/2000/svg">
<path d="M23.6899 14.55L23.6399 11.08C23.6299 10.59 23.3499 10.14 22.9099 9.92997L22.1099 9.52998C20.9499 8.95998 19.7199 8.54997 18.4499 8.32997C17.3599 8.13997 16.2499 8.09998 15.1599 8.19998C14.6399 8.24998 14.1699 8.50997 13.8499 8.91997C13.2899 9.64997 13.0599 10.57 13.1999 11.47L13.3099 12.17C13.4599 13.16 13.7199 14.14 14.0799 15.07L14.8399 17.04L17.6699 18L20.1699 17.04L19.5799 14.89L18.2199 11.29C18.1499 11.1 18.2899 10.89 18.4899 10.89H18.6699C19.5099 10.88 20.3399 11.01 21.1399 11.28L21.3899 11.37C21.5599 11.43 21.6699 11.58 21.6899 11.75L21.8999 14.27C21.9099 14.45 21.8599 14.63 21.7399 14.76C21.6299 14.88 21.5799 15.03 21.5799 15.2V15.54C21.5799 16.04 21.9799 16.44 22.4799 16.44H22.8199C23.3199 16.44 23.7199 16.04 23.7199 15.54C23.6899 15.05 23.6899 14.55 23.6899 14.55Z" fill="#8B5C56"/>
<path d="M11.4 29.5801C10.92 30.3501 10.24 29.82 10.24 29.82L6.29995 27.39C6.17995 27.32 6.14995 27.16 6.22995 27.05C6.35995 26.87 6.54995 26.7601 6.76995 26.7401H6.80995C7.19995 26.7001 7.58995 26.7201 7.96995 26.7901L9.09995 27C9.39995 27.0601 9.69995 26.9801 9.92995 26.7901C10.19 26.5701 10.39 26.2801 10.5 25.9501L11.55 22.7901C11.77 22.1501 12.11 21.55 12.57 21.05L14.27 19.17C14.69 18.7 14.91 18.0801 14.86 17.4501L14.83 17.05L15.75 17.2001C16.75 17.3601 17.75 17.3701 18.75 17.2401L20.17 17.05L20.22 17.7201C20.2371 17.9652 20.2184 18.2136 20.164 18.4559L21.49 19.97C21.63 20.14 21.87 20.18 22.06 20.08C22.06 20.08 26.93 17.4 27.25 17.27C28.07 16.94 28.3 17.75 28.3 17.75L29.97 21.95C30.02 22.07 29.95 22.22 29.84 22.26C29.64 22.33 29.42 22.3 29.24 22.19L29.2 22.17C28.87 21.97 28.58 21.73 28.32 21.45L27.56 20.62C27.36 20.4 27.07 20.28 26.78 20.3C26.53 20.32 26.28 20.38 26.05 20.5C26.04 20.5 26.04 20.49 26.04 20.49L21.5 22.92C20.98 23.2 20.35 23.18 19.85 22.87C19.38 22.59 18.98 22.21 18.67 21.76L17.97 20.76L17.9801 20.7485L14.74 22.8C14.28 23.09 13.93 23.52 13.73 24.03C13.12 25.59 11.76 28.9901 11.4 29.5801Z" fill="#8B5C56"/>
<path d="M17.8999 20.86C17.8999 20.88 18.0299 21.1 18.1899 21.37C18.5799 22.02 19.1099 22.59 19.7399 23.02L20.1799 23.33C20.3299 23.43 20.5399 23.39 20.6299 23.24L20.7599 23.03C21.2699 22.22 21.5899 21.31 21.6999 20.37L21.7299 20.12C21.7499 19.98 21.7099 19.84 21.6199 19.72L21.5399 19.61C21.1999 19.16 20.0399 17.41 20.0399 17.41L17.8999 20.86Z" fill="#636363"/>
<path d="M13.3801 9.75L13.6901 13.25L11.9001 14.94C11.7801 15.05 11.6601 15.15 11.5301 15.24L11.4901 15.27C11.2101 15.46 10.9001 15.61 10.5701 15.7C10.3501 15.76 10.1301 15.8 9.91011 15.81L8.57011 15.9C8.47011 15.91 8.37011 15.95 8.30011 16.02L7.67011 16.62C7.60011 16.68 7.51011 16.72 7.42011 16.72C7.18011 16.72 7.01011 16.5 7.06011 16.26C7.10011 16.11 6.98011 15.96 6.82011 15.96H6.74011C6.71011 15.96 6.68011 15.97 6.65011 15.98L5.57011 16.47C5.32011 16.58 5.03011 16.42 5.01011 16.14C5.00011 16 5.06011 15.86 5.18011 15.77L5.61011 15.48C6.21011 15.07 6.87011 14.76 7.58011 14.57L9.92011 13.93C10.2801 13.83 10.5901 13.62 10.8101 13.32L13.3801 9.75Z" fill="#966661"/>
<path d="M14.9201 17.06L16.1801 17.28C17.0601 17.44 17.9601 17.43 18.8401 17.28L19.9701 17.08C20.0701 17.06 20.1601 17.14 20.1701 17.24C20.2901 17.68 20.3201 18.14 20.2201 18.58C20.1501 18.89 20.0401 19.19 19.8901 19.47C19.6301 19.95 19.2501 20.36 18.7901 20.66L15.5401 22.66C15.3801 22.76 15.1701 22.76 15.0201 22.64L14.6401 22.35C13.9401 21.82 13.3701 21.15 12.9701 20.37C12.8801 20.19 12.9101 19.98 13.0501 19.84L13.7101 19.19C14.1201 18.78 14.4301 18.28 14.6101 17.72L14.8001 17.13C14.8201 17.08 14.8701 17.05 14.9201 17.06Z" fill="#9B9B9B"/>
<path d="M14.64 17.23C14.7 17.24 14.78 17.26 14.86 17.27C16.5 17.58 18.32 17.58 19.96 17.28L20.09 17.26C20.31 17.22 20.44 17 20.38 16.79L19.33 13.81L18.51 11.67C18.46 11.54 18.32 11.47 18.18 11.51L17.92 11.59C17.88 11.6 17.84 11.61 17.8 11.62C17.15 11.71 16.61 11.13 16.71 10.49C16.77 10.09 16.88 9.69999 16.94 9.56999L17.47 8.27999C17.5 8.19999 17.44 8.12 17.36 8.12H16.45C16.41 8.12 16.37 8.13999 16.34 8.17999L15.94 9.06999C15.72 9.55999 15.24 9.86999 14.71 9.87999C14.36 9.87999 14.01 9.74999 13.75 9.50999L13.57 9.33999C13.4 9.65999 13.3 9.99999 13.27 10.36C13.21 11.33 13.3 12.88 13.71 14.75L14.34 16.97C14.39 17.1 14.5 17.2 14.64 17.23Z" fill="#00A6ED"/>
<path d="M6.5 22C7.88071 22 9 20.8807 9 19.5C9 18.1193 7.88071 17 6.5 17C5.11929 17 4 18.1193 4 19.5C4 20.8807 5.11929 22 6.5 22Z" fill="#FF6723"/>
<path d="M8.99878 19.5787C8.99959 19.5526 9 19.5263 9 19.5C9 19.4466 8.99832 19.3935 8.99502 19.341C8.44765 19.3177 7.90613 19.1107 7.46991 18.7199L8.36015 17.8297C8.30655 17.77 8.25013 17.713 8.19109 17.6587L7.28991 18.5599C6.88481 18.118 6.67255 17.5637 6.65119 17.0045C6.60117 17.0015 6.55076 17 6.5 17C6.47331 17 6.44671 17.0004 6.42022 17.0012C6.44369 17.6206 6.68059 18.2335 7.12991 18.7199L6.50991 19.3399L4.81927 17.6493C4.75992 17.7032 4.70319 17.7599 4.64926 17.8193L6.33991 19.5099L5.71991 20.1299C5.23353 19.6806 4.62056 19.4437 4.00125 19.4202C4.00042 19.4467 4 19.4733 4 19.5C4 19.553 4.00165 19.6057 4.0049 19.6579C4.56278 19.6812 5.11336 19.8955 5.54991 20.2999L4.65873 21.1911C4.71298 21.2501 4.77003 21.3065 4.82968 21.3601L5.70991 20.4799C6.10482 20.9111 6.31429 21.4495 6.33926 21.9949C6.39241 21.9983 6.446 22 6.5 22C6.52635 22 6.5526 21.9996 6.57875 21.9988C6.55616 21.3876 6.32655 20.7825 5.88991 20.2999L6.50991 19.6799L8.18073 21.3507C8.24007 21.2968 8.29681 21.2401 8.35073 21.1807L6.67991 19.5099L7.29991 18.8899C7.78251 19.3265 8.38764 19.5562 8.99878 19.5787Z" fill="black"/>
<path d="M25.2567 18.3306L26.2408 20.4153C26.176 20.4394 26.1122 20.4675 26.0499 20.5C26.0399 20.5 26.0399 20.49 26.0399 20.49L24.4428 21.3449L23.469 19.3066C24.019 19.0053 24.6598 18.655 25.2567 18.3306Z" fill="#D3D3D3"/>
<path d="M12.3451 27.4732L10.2261 26.4746C10.3434 26.3168 10.4366 26.14 10.4999 25.95L11.1388 24.0272L13.3322 25.0383C13.0321 25.7933 12.675 26.6794 12.3451 27.4732Z" fill="#D3D3D3"/>
<path d="M25.92 20.76L25.9 20.77C25.76 20.82 25.62 20.76 25.6 20.63C25.58 20.59 25.58 20.54 25.59 20.49C25.6126 20.4166 25.6096 20.2221 25.6064 20.0072C25.6039 19.8415 25.6013 19.6637 25.61 19.52C25.62 19.35 25.44 19.22 25.28 19.29H25.27C25.05 19.38 24.8 19.27 24.71 19.05V19.04C24.57 18.71 24.73 18.33 25.06 18.2L27.44 16.85C27.63 16.77 28.12 16.75 28.2 16.94L30.2 21.86C30.28 22.07 30.17 22.3 29.96 22.36L29.26 22.55C29.11 22.59 28.95 22.53 28.87 22.4L28.31 21.57C28.05 21.19 27.68 20.91 27.24 20.78L26.85 20.66C26.68 20.61 26.5 20.59 26.33 20.62C26.2147 20.6377 26.1152 20.679 25.9756 20.737C25.9578 20.7444 25.9393 20.752 25.92 20.76Z" fill="#00A6ED"/>
<path d="M10.3301 25.9499L10.3401 25.9399C10.4201 25.8199 10.5701 25.7899 10.6901 25.8499C10.7301 25.8699 10.7601 25.9099 10.7801 25.9599C10.8067 26.0238 10.9127 26.1642 11.0331 26.3237C11.1389 26.464 11.2559 26.619 11.3401 26.7499C11.4301 26.8899 11.6501 26.8899 11.7401 26.7399L11.7501 26.7299C11.8701 26.5299 12.1401 26.4699 12.3401 26.5899L12.3501 26.5999C12.6501 26.7899 12.7501 27.1899 12.5601 27.4899L11.4301 29.9899C11.3201 30.1699 10.9401 30.4799 10.7601 30.3699L6.24011 27.5899C6.06011 27.4799 6.01011 27.2299 6.14011 27.0499L6.59011 26.4799C6.69011 26.3599 6.85011 26.3199 6.99011 26.3699L7.93011 26.7099C8.36011 26.8699 8.83011 26.8699 9.26011 26.7199L9.64011 26.5899C9.81011 26.5299 9.96011 26.4399 10.0801 26.3099C10.163 26.2179 10.2204 26.1258 10.3071 25.9868C10.3145 25.9749 10.3222 25.9626 10.3301 25.9499Z" fill="#00A6ED"/>
<path d="M13.0201 6.19999C13.0201 6.59211 12.7022 6.90999 12.3101 6.90999C11.918 6.90999 11.6001 6.59211 11.6001 6.19999C11.6001 5.80787 11.918 5.48999 12.3101 5.48999C12.7022 5.48999 13.0201 5.80787 13.0201 6.19999Z" fill="#8B5C56"/>
<path d="M17.19 6.19999C17.19 6.59211 16.8721 6.90999 16.48 6.90999C16.0879 6.90999 15.77 6.59211 15.77 6.19999C15.77 5.80787 16.0879 5.48999 16.48 5.48999C16.8721 5.48999 17.19 5.80787 17.19 6.19999Z" fill="#8B5C56"/>
<path d="M14.2001 3.02002C12.9901 3.02002 12.0301 4.05002 12.1201 5.25002L12.2901 7.68002C12.3601 8.44002 12.9601 8.98002 13.6901 8.98002H15.0901C15.8201 8.98002 16.4201 8.44002 16.4901 7.68002L16.6601 5.25002C16.7401 4.04002 15.7901 3.02002 14.5801 3.02002H14.2001Z" fill="#966661"/>
<path d="M14.3902 7.53999C14.1502 7.53999 13.9302 7.47999 13.7502 7.38999C13.6902 7.35999 13.6202 7.42999 13.6602 7.48999C13.8202 7.72999 14.0902 7.88999 14.3902 7.88999C14.6902 7.88999 14.9702 7.72999 15.1202 7.48999C15.1602 7.42999 15.0902 7.35999 15.0302 7.38999C14.8502 7.47999 14.6302 7.53999 14.3902 7.53999Z" fill="#990838"/>
<path d="M14.23 6.08008L14 6.81008C13.95 6.96008 14.07 7.11008 14.22 7.11008H14.55C14.71 7.11008 14.82 6.96008 14.77 6.81008L14.54 6.08008C14.51 5.92008 14.28 5.92008 14.23 6.08008Z" fill="#75443E"/>
<path d="M12.76 6.05997C12.83 5.79997 13.07 5.59998 13.35 5.59998C13.65 5.59998 13.89 5.80998 13.95 6.08998C13.96 6.14998 13.91 6.20997 13.85 6.20997H12.88C12.8 6.20997 12.74 6.13997 12.76 6.05997ZM16.0201 6.05997C15.9501 5.79997 15.7101 5.59998 15.4301 5.59998C15.1401 5.59998 14.8901 5.80998 14.8301 6.08998C14.8201 6.14998 14.8701 6.20997 14.9301 6.20997H15.9001C15.9801 6.20997 16.0401 6.13997 16.0201 6.05997Z" fill="white"/>
<path d="M13.05 6.11009C13.05 5.89009 13.23 5.72009 13.44 5.72009C13.66 5.72009 13.83 5.90009 13.82 6.11009V6.11011C13.82 6.14011 13.82 6.1801 13.8101 6.21009H13.0601C13.0601 6.19617 13.0579 6.18225 13.0556 6.16732C13.0529 6.15009 13.05 6.13153 13.05 6.11009ZM15.7301 6.11009C15.7301 5.89009 15.5501 5.72009 15.3401 5.72009C15.1301 5.72009 14.9501 5.90009 14.9601 6.11009C14.9601 6.14009 14.9601 6.18009 14.9701 6.21009H15.7201C15.7201 6.19617 15.7223 6.18225 15.7246 6.16732C15.7272 6.15009 15.7301 6.13153 15.7301 6.11009Z" fill="#7D4533"/>
<path d="M13.4402 5.89001C13.5602 5.89001 13.6602 5.99002 13.6602 6.11002C13.6602 6.15002 13.6502 6.19001 13.6402 6.21001H13.2502C13.2302 6.18001 13.2202 6.15002 13.2202 6.11002C13.2202 5.99002 13.3202 5.89001 13.4402 5.89001ZM15.3401 5.89001C15.2201 5.89001 15.1201 5.99002 15.1201 6.11002C15.1201 6.15002 15.1301 6.19001 15.1401 6.21001H15.5301C15.5501 6.18001 15.5601 6.15002 15.5601 6.11002C15.5601 5.99002 15.4601 5.89001 15.3401 5.89001Z" fill="black"/>
<path d="M13.38 5.96001C13.38 5.99867 13.3486 6.03002 13.31 6.03002C13.2713 6.03002 13.24 5.99867 13.24 5.96001C13.24 5.92135 13.2713 5.89001 13.31 5.89001C13.3486 5.89001 13.38 5.92135 13.38 5.96001ZM15.2901 5.96001C15.2901 5.99867 15.2588 6.03002 15.2201 6.03002C15.1815 6.03002 15.1501 5.99867 15.1501 5.96001C15.1501 5.92135 15.1815 5.89001 15.2201 5.89001C15.2588 5.89001 15.2901 5.92135 15.2901 5.96001Z" fill="white"/>
<path d="M15.74 5.39005C15.78 5.42005 15.83 5.44005 15.88 5.44005C15.96 5.44005 16.03 5.41005 16.07 5.33005C16.15 5.23005 16.13 5.08005 16.03 5.00005C16.0284 4.99925 16.0246 4.99676 16.0187 4.9929C15.9511 4.94874 15.6082 4.72488 15.13 4.78005C15 4.80005 14.9 4.92005 14.92 5.05005C14.94 5.18005 15.06 5.28005 15.19 5.26005C15.51 5.22005 15.73 5.38005 15.74 5.39005ZM12.71 5.35007C12.76 5.41007 12.83 5.44007 12.9 5.44007C12.95 5.44007 13 5.43007 13.04 5.41007C13.05 5.40007 13.27 5.24007 13.59 5.28007C13.73 5.29007 13.84 5.20007 13.86 5.07007C13.87 4.93007 13.78 4.82007 13.65 4.80007C13.1718 4.7449 12.829 4.96876 12.7613 5.01292C12.7554 5.01678 12.7516 5.01927 12.75 5.02007C12.65 5.10007 12.63 5.25007 12.71 5.35007Z" fill="#372128"/>
<path d="M16.6425 3.46428L16.4635 3.37479C16.3343 3.30519 16.215 3.22564 16.1155 3.12621L15.7576 2.76825C15.4891 2.49979 15.0914 2.4103 14.7334 2.53956C14.5047 2.61911 14.2462 2.61911 14.0175 2.53956C13.6993 2.38047 13.3215 2.44013 13.0729 2.68871L12.6354 3.12621C12.536 3.22564 12.4167 3.31513 12.2874 3.37479L12.1084 3.46428C11.7704 3.63331 11.5814 4.00121 11.6511 4.37905L11.8996 5.71143C11.9195 5.84069 12.0388 5.94013 12.1681 5.95007C12.1681 5.95007 12.1383 5.57223 12.1283 5.32365C12.1184 5.19439 12.1681 5.07507 12.2675 4.99552L12.3471 4.92592C12.4564 4.82649 12.5161 4.68729 12.5161 4.53814V4.1603C12.5161 4.05092 12.5857 3.96143 12.6951 3.9316C12.9735 3.862 13.5601 3.74268 14.3854 3.74268C15.2107 3.74268 15.7974 3.862 16.0758 3.9316C16.1752 3.96143 16.2547 4.05092 16.2547 4.1603V4.53814C16.2547 4.68729 16.3144 4.82649 16.4238 4.92592L16.5133 5.00547C16.6027 5.08501 16.6525 5.21427 16.6525 5.33359C16.6326 5.57223 16.6127 5.95007 16.6127 5.95007C16.742 5.94013 16.8513 5.85064 16.8812 5.71143L17.1297 4.37905C17.1596 4.00121 16.9706 3.63331 16.6425 3.46428Z" fill="#2D242D"/>
<path d="M11.7201 3.53003H17.0201C17.1101 3.53003 17.19 3.61003 17.19 3.70003V4.26003C17.19 4.36003 17.1101 4.43003 17.0201 4.43003H11.7201C11.6201 4.43003 11.55 4.35003 11.55 4.26003V3.70003C11.55 3.60003 11.6301 3.53003 11.7201 3.53003Z" fill="#D3D3D3"/>
<path d="M21.6399 12.18L21.6099 11.86C21.5899 11.66 21.4599 11.5 21.2799 11.43L21.0899 11.36C21.0399 11.34 21.0199 11.29 21.0399 11.25L21.8299 9.33996C21.8499 9.29996 21.8999 9.27996 21.9399 9.29996C21.9649 9.31496 21.9924 9.32746 22.0199 9.33996C22.0474 9.35246 22.0749 9.36496 22.0999 9.37996L22.9899 9.81996C23.4799 10.07 23.7899 10.56 23.7999 11.11L23.8099 12.06C23.8099 12.1 23.7799 12.14 23.7399 12.14C23.2199 12.16 22.1799 12.22 21.7199 12.25C21.6799 12.25 21.6399 12.22 21.6399 12.18Z" fill="#D3D3D3"/>
<path d="M6.14011 27.05L6.31011 26.84L11.4301 29.99L11.2701 30.25C11.1701 30.42 10.9401 30.48 10.7601 30.37L6.24011 27.59C6.06011 27.48 6.01011 27.23 6.14011 27.05Z" fill="#D3D3D3"/>
<path d="M29.7126 22.431L29.9726 22.361C30.1826 22.301 30.2926 22.071 30.2126 21.861L28.2126 16.941C28.1326 16.751 27.9126 16.661 27.7226 16.741L27.4426 16.851L29.7126 22.431Z" fill="#D3D3D3"/>
</svg>

<svg xmlns="http://www.w3.org/2000/svg" width="32" height="32" fill="none"><path fill="#8B5C56" d="m23.69 14.55-.05-3.47c-.01-.49-.29-.94-.73-1.15l-.8-.4c-1.16-.57-2.39-.98-3.66-1.2-1.09-.19-2.2-.23-3.29-.13-.52.05-.99.31-1.31.72a3.34 3.34 0 0 0-.65 2.55l.11.7c.15.99.41 1.97.77 2.9l.76 1.97 2.83.96 2.5-.96-.59-2.15-1.36-3.6c-.07-.19.07-.4.27-.4h.18c.84-.01 1.67.12 2.47.39l.25.09c.17.06.28.21.3.38l.21 2.52c.01.18-.04.36-.16.49-.11.12-.16.27-.16.44v.34c0 .5.4.9.9.9h.34c.5 0 .9-.4.9-.9-.03-.49-.03-.99-.03-.99Z"/><path fill="#8B5C56" d="M11.4 29.58c-.48.77-1.16.24-1.16.24L6.3 27.39a.235.235 0 0 1-.07-.34c.13-.18.32-.29.54-.31h.04c.39-.04.78-.02 1.16.05L9.1 27c.3.06.6-.02.83-.21.26-.22.46-.51.57-.84l1.05-3.16c.22-.64.56-1.24 1.02-1.74l1.7-1.88c.42-.47.64-1.09.59-1.72l-.03-.4.92.15c1 .16 2 .17 3 .04l1.42-.19.05.67c.017.245-.002.494-.056.736l1.326 1.514c.14.17.38.21.57.11 0 0 4.87-2.68 5.19-2.81.82-.33 1.05.48 1.05.48l1.67 4.2c.05.12-.02.27-.13.31-.2.07-.42.04-.6-.07l-.04-.02c-.33-.2-.62-.44-.88-.72l-.76-.83a.973.973 0 0 0-.78-.32c-.25.02-.5.08-.73.2-.01 0-.01-.01-.01-.01l-4.54 2.43c-.52.28-1.15.26-1.65-.05-.47-.28-.87-.66-1.18-1.11l-.7-1 .01-.012-3.24 2.052c-.46.29-.81.72-1.01 1.23-.61 1.56-1.97 4.96-2.33 5.55Z"/><path fill="#636363" d="M17.9 20.86c0 .02.13.24.29.51.39.65.92 1.22 1.55 1.65l.44.31c.15.1.36.06.45-.09l.13-.21c.51-.81.83-1.72.94-2.66l.03-.25a.536.536 0 0 0-.11-.4l-.08-.11c-.34-.45-1.5-2.2-1.5-2.2l-2.14 3.45Z"/><path fill="#966661" d="m13.38 9.75.31 3.5-1.79 1.69c-.12.11-.24.21-.37.3l-.04.03a3.097 3.097 0 0 1-1.58.54l-1.34.09c-.1.01-.2.05-.27.12l-.63.6c-.07.06-.16.1-.25.1-.24 0-.41-.22-.36-.46.04-.15-.08-.3-.24-.3h-.08c-.03 0-.06.01-.09.02l-1.08.49a.396.396 0 0 1-.56-.33c-.01-.14.05-.28.17-.37l.43-.29c.6-.41 1.26-.72 1.97-.91l2.34-.64c.36-.1.67-.31.89-.61l2.57-3.57Z"/><path fill="#9B9B9B" d="m14.92 17.06 1.26.22c.88.16 1.78.15 2.66 0l1.13-.2c.1-.02.19.06.2.16.12.44.15.9.05 1.34a3.304 3.304 0 0 1-1.43 2.08l-3.25 2c-.16.1-.37.1-.52-.02l-.38-.29a5.8 5.8 0 0 1-1.67-1.98.454.454 0 0 1 .08-.53l.66-.65c.41-.41.72-.91.9-1.47l.19-.59c.02-.05.07-.08.12-.07Z"/><path fill="#00A6ED" d="M14.64 17.23c.06.01.14.03.22.04 1.64.31 3.46.31 5.1.01l.13-.02c.22-.04.35-.26.29-.47l-1.05-2.98-.82-2.14a.27.27 0 0 0-.33-.16l-.26.08-.12.03c-.65.09-1.19-.49-1.09-1.13.06-.4.17-.79.23-.92l.53-1.29a.118.118 0 0 0-.11-.16h-.91c-.04 0-.08.02-.11.06l-.4.89c-.22.49-.7.8-1.23.81-.35 0-.7-.13-.96-.37l-.18-.17c-.17.32-.27.66-.3 1.02-.06.97.03 2.52.44 4.39l.63 2.22c.05.13.16.23.3.26Z"/><path fill="#FF6723" d="M6.5 22a2.5 2.5 0 1 0 0-5 2.5 2.5 0 0 0 0 5Z"/><path fill="#000" d="M8.999 19.579a2.54 2.54 0 0 0-.004-.238 2.436 2.436 0 0 1-1.525-.621l.89-.89a2.516 2.516 0 0 0-.169-.171l-.901.9a2.433 2.433 0 0 1-.639-1.555 2.525 2.525 0 0 0-.23-.003c.023.62.26 1.232.709 1.719l-.62.62-1.69-1.69c-.06.053-.117.11-.17.17l1.69 1.69-.62.62A2.677 2.677 0 0 0 4 19.42a2.549 2.549 0 0 0 .004.238 2.416 2.416 0 0 1 1.545.642l-.891.891c.054.06.111.116.17.17l.88-.881a2.4 2.4 0 0 1 .63 1.515 2.518 2.518 0 0 0 .24.004 2.673 2.673 0 0 0-.69-1.7l.62-.62 1.672 1.672c.06-.054.116-.11.17-.17L6.68 19.51l.62-.62a2.673 2.673 0 0 0 1.699.689Z"/><path fill="#D3D3D3" d="m25.257 18.33.984 2.085a1.674 1.674 0 0 0-.191.085c-.01 0-.01-.01-.01-.01l-1.597.855-.974-2.038c.55-.302 1.19-.652 1.788-.976ZM12.345 27.473l-2.119-.998c.117-.158.21-.335.274-.525l.639-1.923 2.193 1.011c-.3.755-.657 1.641-.987 2.435Z"/><path fill="#00A6ED" d="m25.92 20.76-.02.01c-.14.05-.28-.01-.3-.14a.22.22 0 0 1-.01-.14c.023-.073.02-.268.016-.483a6.958 6.958 0 0 1 .004-.487c.01-.17-.17-.3-.33-.23h-.01a.431.431 0 0 1-.56-.24v-.01c-.14-.33.02-.71.35-.84l2.38-1.35c.19-.08.68-.1.76.09l2 4.92c.08.21-.03.44-.24.5l-.7.19a.351.351 0 0 1-.39-.15l-.56-.83c-.26-.38-.63-.66-1.07-.79l-.39-.12c-.17-.05-.35-.07-.52-.04a1.513 1.513 0 0 0-.354.117l-.056.023ZM10.33 25.95l.01-.01a.27.27 0 0 1 .35-.09c.04.02.07.06.09.11.027.064.133.204.253.364.106.14.223.295.307.426.09.14.31.14.4-.01l.01-.01c.12-.2.39-.26.59-.14l.01.01c.3.19.4.59.21.89l-1.13 2.5c-.11.18-.49.49-.67.38l-4.52-2.78a.376.376 0 0 1-.1-.54l.45-.57c.1-.12.26-.16.4-.11l.94.34c.43.16.9.16 1.33.01l.38-.13c.17-.06.32-.15.44-.28.083-.092.14-.184.227-.323l.023-.037Z"/><path fill="#8B5C56" d="M13.02 6.2a.71.71 0 1 1-1.42 0 .71.71 0 0 1 1.42 0ZM17.19 6.2a.71.71 0 1 1-1.42 0 .71.71 0 0 1 1.42 0Z"/><path fill="#966661" d="M14.2 3.02c-1.21 0-2.17 1.03-2.08 2.23l.17 2.43c.07.76.67 1.3 1.4 1.3h1.4c.73 0 1.33-.54 1.4-1.3l.17-2.43c.08-1.21-.87-2.23-2.08-2.23h-.38Z"/><path fill="#990838" d="M14.39 7.54c-.24 0-.46-.06-.64-.15-.06-.03-.13.04-.09.1.16.24.43.4.73.4s.58-.16.73-.4c.04-.06-.03-.13-.09-.1-.18.09-.4.15-.64.15Z"/><path fill="#75443E" d="m14.23 6.08-.23.73c-.05.15.07.3.22.3h.33c.16 0 .27-.15.22-.3l-.23-.73c-.03-.16-.26-.16-.31 0Z"/><path fill="#fff" d="M12.76 6.06a.62.62 0 0 1 .59-.46c.3 0 .54.21.6.49.01.06-.04.12-.1.12h-.97a.12.12 0 0 1-.12-.15Zm3.26 0a.62.62 0 0 0-.59-.46.62.62 0 0 0-.6.49c-.01.06.04.12.1.12h.97c.08 0 .14-.07.12-.15Z"/><path fill="#7D4533" d="M13.05 6.11c0-.22.18-.39.39-.39.22 0 .39.18.38.39 0 .03 0 .07-.01.1h-.75c0-.014-.002-.028-.004-.043a.356.356 0 0 1-.006-.057Zm2.68 0a.39.39 0 0 0-.39-.39c-.21 0-.39.18-.38.39 0 .03 0 .07.01.1h.75c0-.014.002-.028.005-.043.002-.017.005-.035.005-.057Z"/><path fill="#000" d="M13.44 5.89c.12 0 .22.1.22.22 0 .04-.01.08-.02.1h-.39a.169.169 0 0 1-.03-.1c0-.12.1-.22.22-.22Zm1.9 0c-.12 0-.22.1-.22.22 0 .04.01.08.02.1h.39c.02-.03.03-.06.03-.1 0-.12-.1-.22-.22-.22Z"/><path fill="#fff" d="M13.38 5.96a.07.07 0 1 1-.14 0 .07.07 0 0 1 .14 0Zm1.91 0a.07.07 0 1 1-.14 0 .07.07 0 0 1 .14 0Z"/><path fill="#372128" d="M15.74 5.39c.04.03.09.05.14.05.08 0 .15-.03.19-.11.08-.1.06-.25-.04-.33-.002 0-.005-.003-.011-.007a1.353 1.353 0 0 0-.889-.213c-.13.02-.23.14-.21.27.02.13.14.23.27.21.32-.04.54.12.55.13Zm-3.03-.04c.05.06.12.09.19.09.05 0 .1-.01.14-.03.01-.01.23-.17.55-.13.14.01.25-.08.27-.21a.246.246 0 0 0-.21-.27c-.478-.055-.821.169-.889.213l-.011.007c-.1.08-.12.23-.04.33Z"/><path fill="#2D242D" d="m16.642 3.464-.178-.09c-.13-.069-.249-.148-.348-.248l-.358-.358a.977.977 0 0 0-1.025-.228c-.228.08-.487.08-.716 0a.815.815 0 0 0-.944.149l-.438.437c-.099.1-.218.19-.348.249l-.179.09a.847.847 0 0 0-.457.914l.249 1.332c.02.13.139.23.268.24 0 0-.03-.379-.04-.627a.375.375 0 0 1 .14-.328l.08-.07a.52.52 0 0 0 .168-.388V4.16c0-.11.07-.199.18-.228.277-.07.864-.19 1.69-.19.825 0 1.411.12 1.69.19.1.03.179.119.179.228v.378c0 .15.06.288.169.388l.09.08c.089.079.139.208.139.328-.02.238-.04.616-.04.616.129-.01.238-.1.268-.239l.249-1.332a.942.942 0 0 0-.488-.915Z"/><path fill="#D3D3D3" d="M11.72 3.53h5.3c.09 0 .17.08.17.17v.56c0 .1-.08.17-.17.17h-5.3c-.1 0-.17-.08-.17-.17V3.7c0-.1.08-.17.17-.17ZM21.64 12.18l-.03-.32a.514.514 0 0 0-.33-.43l-.19-.07c-.05-.02-.07-.07-.05-.11l.79-1.91c.02-.04.07-.06.11-.04a.796.796 0 0 0 .08.04c.027.012.055.025.08.04l.89.44c.49.25.8.74.81 1.29l.01.95c0 .04-.03.08-.07.08-.52.02-1.56.08-2.02.11-.04 0-.08-.03-.08-.07ZM6.14 27.05l.17-.21 5.12 3.15-.16.26c-.1.17-.33.23-.51.12l-4.52-2.78a.376.376 0 0 1-.1-.54ZM29.713 22.431l.26-.07c.21-.06.32-.29.24-.5l-2-4.92a.375.375 0 0 0-.49-.2l-.28.11 2.27 5.58Z"/></svg>
